build/img/icon-arrow-right.svg

<svg width="8" height="14" viewBox="0 0 8 14" fill="none" xmlns="http://www.w3.org/2000/svg">
<path fill-rule="evenodd" clip-rule="evenodd" d="M0.468574 1.32153C0.0790303 1.71188 0.0790303 2.34391 0.468574 2.73427L4.03174 6.30486C4.42129 6.69521 4.42129 7.32725 4.03174 7.7176L0.468574 11.2882C0.0790301 11.6785 0.0790302 12.3106 0.468574 12.7009L0.569343 12.8019C0.960035 13.1934 1.59434 13.1934 1.98503 12.8019L7.05877 7.7176C7.44831 7.32725 7.44831 6.69521 7.05877 6.30486L1.98503 1.22055C1.59434 0.829042 0.960035 0.829041 0.569343 1.22055L0.468574 1.32153Z" fill="#0E4CD3"/>
</svg>

<svg width="8" height="14" fill="none" xmlns="http://www.w3.org/2000/svg"><path fill-rule="evenodd" clip-rule="evenodd" d="M.469 1.322a1 1 0 000 1.412l3.563 3.57a1 1 0 010 1.414l-3.563 3.57a1 1 0 000 1.413l.1.1a1 1 0 001.416 0l5.074-5.083a1 1 0 000-1.413L1.985 1.22a1 1 0 00-1.416 0l-.1.1z" fill="#0E4CD3"/></svg>
